svgs/sharp-solid/file-dashed-line.svg

<svg xmlns="http://www.w3.org/2000/svg" viewBox="0 0 640 512"><!--! Font Awesome Pro 6.6.0 by @fontawesome - https://fontawesome.com License - https://fontawesome.com/license (Commercial License) Copyright 2024 Fonticons, Inc. --><path d="M128 0L352 0l0 160 160 0 0 96-384 0L128 0zm0 368l384 0 0 144-384 0 0-144zM512 128l-128 0L384 0 512 128zM56 288l112 0 24 0 0 48-24 0L56 336l-24 0 0-48 24 0zm224 0l80 0 24 0 0 48-24 0-80 0-24 0 0-48 24 0zm192 0l112 0 24 0 0 48-24 0-112 0-24 0 0-48 24 0z"/></svg>

<svg xmlns="http://www.w3.org/2000/svg" viewBox="0 0 640 512"><!--! Font Awesome Pro 6.4.2 by @fontawesome - https://fontawesome.com License - https://fontawesome.com/license (Commercial License) Copyright 2023 Fonticons, Inc. --><path d="M128 0H352V160H512v96H128V0zm0 368H512V512H128V368zM512 128H384V0L512 128zM56 288H168h24v48H168 56 32V288H56zm224 0h80 24v48H360 280 256V288h24zm192 0H584h24v48H584 472 448V288h24z"/></svg>
